X: 14
T:Road to Butlins A52
% Nottingham Music Database
S:Kevin Briggs, via EF
M:4/4
L:1/4
K:D
P:A
d/2e/2|"D"f2 fe/2f/2|"G"gf ed|"A7"cd ef|"D"dA FA|"D"f2 f"D/f+"e/2f/2|\
"G"gf "E7/g+"ed|"A7"cd "A7/g"ef|"D/f+"d2 "A7/e"d:|
P:B
f/2g/2|"D"a2 ag/2a/2|"G"ba gf|"A7"g2 gf/2g/2|"D"ag "F#7"fe|\
"Bm"f2 "Bm/a"fe/2f/2|"Em/g"gf "E7/g+"ed|"A7"cd ef|"D"d3:|<end>
<start>
